X:270
T:Turn of the Century
C:David Grisman
N: (Tone Poems) TablEdited by Fred Keller
L:1/8
Q:1/4=110
M:4/4
K:G
z2 G2 A2 ^A2 | "G"B^A Bd ze zA | B^A B=A zG z^D | "C"E^D EA zG zE | "G"[GB,][AC] [^A^C][BD] z4 | 
B^A Bd ze zA | B^A B=A zG z2 | "A7"A^G AE z2 B^A | "D"A8 | "G"B^A Bd ze zA | B^A B=A zG z^D | 
"C"E^D E{G}A zG zE | "B7"^DB, ^A,=A, z4 | "C"E^D E{G}A "Edim"zG z^A | "G"B^A B"E7"d ze z2 | 
"A7"B^A B{d}e "D7"zd zA/=A/ | "G"G4 z[gB] [ac][^a^c] | [bd][^a^c] [bd][d'=f] z[c'e] z[b^d] | 
"C"[c'8e8] | "A7"[^c'e][=c'^d] [^c'e][e'g] z[d'f] z[c'=f] | "D7"[d'8f8] | "C"g^d ec z2 A^A | 
"G"B^A B{d}e "E7"z4 | "A7"B^A B{d}e "D7"zd zA/=A/ | "G"(3GGG (3GGG G2 A^A | "G"B^A BA BA Bd | 
z^A BG/G/ G/G/G/G/ G^D | "C"E^D E{G}A zG E=D | "G"B,/G/C/A/ ^C/^A/D/B/ z4 | "G"zG Bd ga ^ab/b/ | 
b/b/b ^ab g2 fg | {d}"A7"e/e/e ^de ^c/c/c/c/ c/c/c/c/ | "D7"cB cA z4 | "G"[BDG,]c ^cd zg a^a | 
zb zd' ze' zg' | "C"ze' d'e' {a}^ad' {=a}_bd' | "B7"a6 ^de | "C"ga {a}b6 | "G"zd' be'/e'/ "E7"e'/e'/e'/e'/ e'/e'/e'/e'/ | 
"A7"gf ge "D7"zd {^A}BG | "G"G6 A^A | B^A BA BA BA | B^A BG/G/ G/G/G D^D | "C"E^D E{G}A zG ^AB/B/ | 
"G"B/B/B/B/ B/B/B/B/ B[gB] [ac][^a^c] | "G"[bd][^a^c] [bd][ac] [bd][ac] [bd][ac] | 
[bd][^a^c] [=a=c][gB] z4 | "A7"[a^c][bd] [c'^d][^c'e] z4 | "D7"[fA][=f^G] [e=G][dF] z2 A^A | 
"G"B^A BA Bd ze | ^A{A}=A zG/G/ G/G/G/G/ G/G/G/G/ | "C"{^D}EG AG {^A}=AG E{G}A/A/ | 
"B7"A/A/A/A/ A/A/A/A/ A/A/A D^D | "C""C"E^D E{G}A "Edim"zG A^A | "G"B^A Bd "E7"z2 e2 | 
"A7"B^A B2 {d}"D7"ed A=A | "G"G2 DE "G7"=F4 | "C"e^d ea "Edim"zg za/^a/ | "G"bd' zb "E7"e'/e'/e'/e'/ e'/e'/e'/e'/ | 
e'/e'/e'/e'/ e'/e'/e'/e'/ e'G A^A | "A7"B^A B{d}e "D7"zd A=A | "G"G2 DE zD E2 | 
G4 [g4B4G4D4] | 
 

